X: 19135
T: Irish Washerwoman, The
R: jig
M: 6/8
K: Dmajor
|:FDD ADD|FDF AGF|GEE BEE|GEG BAG|
FDD ADD|FDF AGF|GFG EAG|FDD D3:|
|:dAd dAd|dAd fed|cAc cAc|cAc edc|
Bdd Add|Gdd F2F|GFG EAG|1 FDD D2A:|2 FDD D2E||
|:FDD A3|FDF AGF|GEE B3|G3 BAG|
FDD A3|FDF AGF|G3 EAG|FDD D3:|
|:d3 dAd|dAd fed|c3 cAc|cAc edc|
B2d A2d|GFd F3|GFG EAG|1 FDD D2A:|2 FDD D2E||

